icons/customer-service.svg

<svg width="24" height="24" viewBox="0 0 24 24" fill="none" xmlns="http://www.w3.org/2000/svg">
<path d="M3 12C3 7.02944 7.02944 3 12 3C16.9706 3 21 7.02944 21 12M3 12V17C3 17.3425 3.03443 17.6769 3.10002 18H7C7.55228 18 8 17.5523 8 17V13C8 12.4477 7.55228 12 7 12H3ZM21 12V17C21 17.3425 20.9656 17.6769 20.9 18M21 12H17C16.4477 12 16 12.4477 16 13V17C16 17.5523 16.4477 18 17 18H20.9M20.9 18C20.4367 20.2822 18.419 22 16 22" stroke="white" stroke-width="2" stroke-linecap="round" stroke-linejoin="round"/>
</svg>

<svg
  width="24"
  height="24"
  viewBox="0 0 24 24"
  xmlns="http://www.w3.org/2000/svg"
  fill="none"
  stroke="currentColor"
  stroke-width="2"
  stroke-linecap="round"
  stroke-linejoin="round"
>
  <path d="M3 12a9 9 0 0 1 18 0M3 12v5c0 .343.034.677.1 1H7a1 1 0 0 0 1-1v-4a1 1 0 0 0-1-1H3zm18 0v5c0 .343-.034.677-.1 1m.1-6h-4a1 1 0 0 0-1 1v4a1 1 0 0 0 1 1h3.9m0 0a5.002 5.002 0 0 1-4.9 4" />
</svg>
